X:1
T:Pur converra, ch'i miei martir'
T:Girolamo Scotto
T:Source : Secondo Libro delle Muse a tre voci---Venetia---G.Scotto---1562. Editor : André Vierendeels (04/06/16)  
T:Notes : Original clefs : C2, C3, F4 Editorial accidentals above tha staff Original note values have been halved Square brackets indicate ligatures "Quinti toni"
T:Pur converra, ch'i miei martir'
T:©
T:©
T:©
T:©
T:©
T:©
T:©
T:©
C:Girolamo Scotto
Z:©
%%score [ 1 2 3 ]
L:1/8
Q:1/4=106
M:2/2
K:F
V:1 treble nm="Alto" snm="A"
V:2 treble-8 nm="Tenor" snm="T"
V:3 bass nm="Bass" snm="B"
V:1
 z8 | z4 D4 | D2 D2 E3 E | F2 D2 F2 F2 | E4 D2 F2- | F2 E2 F2 C2 | C2 C2 F4 | E3 F G2 E2 | %8
w: |Pur|con- ver- rà, ch'i|miei mar- tir' a-|mo- * *|* * re, sfo-|ghi col pian-|to, _ _ sfo-|
 F2 E2 D4- | D2 G3 F/E/ F2 | G2 G2 A4- | A2 A2 A4 | F4 E4 | D2 F3 E/D/ E2 | F4 D4 | z2 E2 F2 F2 | %16
w: ghi col pian-||to, et co'|_ so- spi-|ri'ar- den-||* ti,|fin che sia|
 E2 A3 G/F/ G2 | A4 z2 A2 | G2 G2 A2 G2- | GF F4 E2 | F4 z4 | F4 F2 E2 | F2 F2 D4 | E2 F2 D2 C2- | %24
w: vo- to'il _ _ pet-|to, e|gl'oc- chi spen- *||ti,|che fur prin-|ci- pio'al mio|si lun- go'er- ro-|
 C2 F4 E2 | F2 D2 E2 CD | EF G3 F F2- | F2 E2 F4 | z2 C2 C2 C2 | D4 E4 | F6 F2 | D4 A4- | %32
w: |re, er- ro- * *||* * re,|pur con- ver-|rà che|si de-|ser- t'il|
 A2 G2 F4 | E2 A4 G2 | A4 z4 | z4 D4 | D2 D2 F2 E2 | D4 E4 | F2 F2 C2 C2 | D2 D2 F2 B,C | %40
w: _ co- *||re,|et|s'ap- pa- le- si'al|mon- do,|et s'ap- pa- le-|si'al mon- do, et _|
 DE F2 D2 _E2- | ED D3 C/B,/ C2 | D4 D4 | F4 E4 | D3 E F2 DE | FG A3 G/F/ G2 | A4 D4 | D2 D2 E4 | %48
w: _ _ _ _ a|_ le gen- * * *|ti, o|de- sir|fol- * * * *||li, o|pen- sier tri-|
 F4 E2 G2 | G2 F2 E3 F | G2 E2 F2 D2 | D2 E2 F2 C2- | C2 F2 F2 F2 | E2 A4 G2 | A6 G2 | F4 E4 | %56
w: * st'in- ten-|ti, al fon- te|sol del vo- str'as-|pro do- lo- *|* re, del vo-|str'as- pro do-|lo- *||
 F4 D2 A2- | A2 GF E2 G2 | G2 F2 E3 F | G2 E2 F2 D2 | D2 E2 F2 C2- | C2 F2 F2 F2 | E2 A4 G2 | %63
w: |||||||
 A6 G2 | F4 E4 | F4 E2 A2- | A2 GF E2 F2- | F2 E2 F2 D2- | D2 C2 D2 F2- | F2 C2 DEFD | %70
w: ||||* * re, del|_ vo- str'as- pro|_ do- lo- * * *|
 EF G3 F F2- | F2 E2 F4- | F8 |] %73
w: |* * re.|_|
V:2
 d4 d2 d2 | A3 A B2 B2 | G2 G2 c3 B | A2 B2 A2 d2 | c2 c2 B2 A2- | AG/F/ G2 A3 G | AB c3 B/A/ B2 | %7
w: Pur con- ver-|rà, ch'i miei mar-|tir' a- mo- *|* * re, ch'i|miei mar- ti- ri|_ _ _ a- mo- *||
 c2 G2 G2 G2 | A4 B4- | B4 z4 | z2 c2 c2 c2 | d2 f3 e e2- | ed d4 c2 | d3 c B4 | A2 A2 B2 B2 | %15
w: re, sfo- ghi col|pian- to,|_|et co' so-|spi- ri'ar- * den-|||ti, fin che sia|
 G2 G2 FGAB | c2 A2 B4 | A2 d2 c2 c2 | _e3 d c4- | c2 BA G4 | F2 A2 A2 B2 | c2 d3 c c2- | %22
w: vo- to'il pet- * * *||to, et gl'oc- chi|spen- * *|* * * ti,|che fur prin- ci-|pio'al mio si lun-|
 c2 d3 cBA | G2 A2 B2 G2 | A2 FG AB c2- | cB/A/ B2 c2 A2- | A2 G2 A2 B2 | G4 A4 | z2 A2 A2 A2 | %29
w: |* * go'er ro-||* * * * re, si|_ lun- go'er- *|ro- re,|pur con- ver-|
 B4 G4 | d6 c2 | B4 A2 f2- | f2 e2 d2 c2- | c2 f4 ed | e2 f3 e d2- | d2 c2 B2 A2- | %36
w: rà che|si de-|ser- t'il co-|||||
 AG/F/ G2 A2 c2- | cB/A/ B2 c4 | z2 A2 A2 A2 | B2 F4 G2 | B2 A2 B2 G2 | c2 BA G4 | A4 B4- | %43
w: |* * * * re,|et s'ap- pa-|le- si'al mun-|do, et a le|gen- * * *|ti, o|
 B2 B2 G4 | B4 A2 B2 | A2 F2 B4 | A4 B4 | B2 B2 G2 c2- | cB/A/ B2 c4- | c4 z2 c2 | c2 c2 B2 B2 | %51
w: _ de- sir|fol- li, o|de- sir fol-|li, o|pen- sier tri- *|* * * * sti,|_ in-|ten- ti'al fon- te|
 B4 A4 | A4 A2 d2- | d2 c2 d4 | e4 f2 e2 | f2 d4 c2 | dcBA G2 c2- | cB/A/ B2 c4- | c4 z2 c2 | %59
w: sol del|vo- str'as- pro|_ do- lo-|re, del vo-|str'as- pro do-|lo- * * * * *|* * * * re,|_ in-|
 c2 c2 B2 B2 | B4 A4 | A4 A2 d2- | d2 c2 d4 | e4 f2 e2 | f2 d4 c2 | dcBA G2 c2- | cB/A/ B2 c2 d2 | %67
w: ten- ti'al fon- te|sol del|vo- str'as- pro|_ do- lo-|re, del vo-|str'as- pro do-|lo- * * * * *|* * * * * re,|
 G4 A2 B2 | F4 F3 G | A6 B2 | G2 c2 A2 B2 | G4 A4- | A8 |] %73
w: del vo- str'as-|pro do- *|lo- *||* re.|_|
V:3
 z8 | z8 | z8 | D,4 D,2 D,2 | A,,3 A,, D,2 D,2 | C,2 C,2 F,4- | F,4 D,4 | C,8 | z4 z2 G,2 | %9
w: |||Pur con- ver-|rà, ch'i miei mar-|tir' a- mo-||re,|sfo-|
 G,2 G,2 A,4 | G,2 E,2 F,2 F,2 | D,2 D,2 A,4 | D,4 z2 A,2 | B,2 B,2 G,4 | F,2 D,2 G,4 | C,4 D,4 | %16
w: ghi col pian-|to et co' so-|spi- ri'ar- den-|ti, fin|che sia vo-|to il pet-|to _|
 C,2 F,2 G,2 G,2 | D,4 E,2 F,2 |"^-natural" C,2 C,2 F,2 E,2 | F,2 B,,2 C,4 | z2 F,2 F,2 G,2 | %21
w: et gl'oc- chi spen-|ti, et gl'oc-|chi spen- * *|* * ti,|che fur prin-|
 A,2 B,2 A,3 G, | F,E, D,2 G,4 | C,2 F,4 E,2 | F,2 D,4 C,2 | D,4 A,,3 B,, | C,D, E,2 F,2 B,,2 | %27
w: ci- pio'al mio si|lun- * * *||go'er- ro- *||* * * re, er-|
 C,4 F,4 | z2 F,2 F,2 F,2 | B,,4 C,4 | B,,4 F,4 | G,4 F,2 D,2- | D,2 E,2 F,2 A,2- | A,2 F,2 B,4 | %34
w: ro- re,|pur con- ver-|rà che|si de-|ser- t'il co-|* re, il co-||
 A,2 D,2 F,2 G,2 | E,4 D,3 C, | B,,4 A,,4 | z4 z2 C,2 | D,2 D,2 F,2 F,2 | B,,3 C, D,2 E,2 | %40
w: re, il co- *||* re,|et|s'ap- pa- le- si'al|mun- * do, et|
 D,4 G,2 C,2- | C,2 D,2 _E,4 | D,4 B,,4- | B,,2 B,,2 C,4 | G,4 D,2 G,2 | F,2 D,2 G,4 | D,4 G,4 | %47
w: a le gen-||ti, o|_ de- sir|fol- li, o|de- sir fol-|li, o|
 G,2 G,2 C,4 | D,4 C,3 D, | E,2 F,2 C,4- | C,4 z2 G,2 | G,2 G,2 F,2 F,2 | F,3 E, D,2 D,2 | %53
w: pen- sier tri-||* * sti,|_ in-|ten- ti'al fon- te|sol _ _ del|
 A,2 A,2 B,4 | A,3 G, F,2 C,2 | D,E,F,G, A,4 | D,4 E,2 F,2 | D,4 C,3 D, | E,2 F,2 C,4- | %59
w: vo- str'as- pro|do- * * lo-|re _ _ _ _|del vo- str'as-|pro do- *|* lo- re,|
 C,4 z2 G,2 | G,2 G,2 F,2 F,2 | F,3 E, D,2 D,2 | A,2 A,2 B,4 | A,3 G, F,2 C,2 | D,E,F,G, A,4 | %65
w: _ in-|ten- ti'al fon- te|sol _ _ del|vo- str'as- pro|do- * * lo-|re _ _ _ del|
 D,4 E,2 F,2 | D,4 C,2 B,,2 | C,4 F,2 B,,2- | B,,2 A,,2 B,,4 | F,3 E, D,C, B,,2 | C,4 D,2 B,,2 | %71
w: vo- * str'as-|pro do- *|lo- re, do-|* * lo-|||
 C,4 F,4- | F,8 |] %73
w: * re.|_|

